X:1
T:Als dritt Hauptstück
T:André Vierendeels
T:Melody by Georg Vogler (1625) (Soprano voice)
T:Source : Catechismus---Würzburg---J.Volmari---1652. Editor : André Vierendeels (06/09/17).
T:Notes : Original clef : C1, other voices supplied editorially Original note values have been halved Text Middle German
T:Als dritt Hauptstück
T:©
T:©
C:André Vierendeels
Z:©
%%score [ 1 2 3 ]
L:1/8
Q:1/4=80
M:2/2
K:F
V:1 treble nm="Soprano" snm="S"
V:2 treble-8 nm="Tenor" snm="T"
V:3 bass nm="Bass" snm="B"
V:1
"^1)" C4 F2 F2 | G2 G2 A2 A2 | F4 B4 | A4 G4 | F2 F2 D2 E2 | F8 | C4 F2 F2 | G2 G2 A2 A2 | F4 B4 | %9
w: Das dritt Haupt-|stück, die Lieb ihr|Näst, zu|Gott sein|hoch und starck auff-|richt,|auch zu dem|Näch- sten auff das|best, weit|
w: Dich lieb ich|Gott, O Vat- ter|mild, führ|mich wo-|hin du im- mer|wilt,|und gsetzt dasz|mein Will gar nicht|wöll, so|
 A4 G4 | F2 F2 D2 E2 |[M:2/4] !fermata!F4 |:[M:2/2] F4 A2 G2 | A2 B2 c4 | d4 c4 | c4 d4 | %16
w: und breit|in das Werck auff-|bricht.|Erst musz der|Glaub ins Herz|hin- ein,|als dann|
w: musz er|wann er wei- nen|soll:|hilff mir Ma-|ri- a Müt-|ter- lich,|da- mit|
 c4 A2 B2 | c4 d4 | c4 c4 | B2 A2 G2 c2 | B4 G4 | F8 :| %22
w: Hoff- nung und|Lie- be|rem, am|Glau- ben ist nicht|gnug al-|lein.|
w: ich Gott voll-|kom- men-|lich, den|Näch- sten a- ber|lieb als|mich.|
V:2
"^2)""^1)" c4 A2 A2 | B2 B2 c2 c2 | A4 d4 | A4 B4 | A2 A2 F2 G2 | A8 | c4 A2 A2 | B2 B2 c2 c2 | %8
w: Das dritt Haupt-|stück, die Lieb ihr|Näst, zu|Gott sein|hoch und starck auff-|richt,|auch zu dem|Näch- sten auff das|
w: Die Lieb ein|Gab und Tu- gend|ist, von|Gott selbst|ein- ge- gos- *|sen:|mit wel- cher|ein recht- schaf- fner|
 A4 d4 | A4 B4 | A2 A2 F2 G2 |[M:2/4] !fermata!A4 |:[M:2/2] c4 c2 d2 | c2 f2 f4 | d4 e4 | e4 f4 | %16
w: best, weit|und breit|in das Werck auff-|bricht.|Erst musz der|Glaub ins Herz|hin- ein,|als dann|
w: Christ sein|Näch- sten|un- ver- dros- *|sen.|Gott a- ber|liebt als höch-|ste Gut,|der all-|
 e4 c2 d2 | e4 f4 | e4 c4 | d2 c2 B2 G2 | d4 c4 | A8 :| %22
w: Hoff- nung und|Lie- be|rem, am|Glau- ben ist nicht|gnug al-|lein.|
w: zeit er- frewd|Hertz und|Muth, kein|Traw- rig- keit ein-|schlies- sen|thut.|
V:3
"^3)""^1)""^4)" F,4 D,2 D,2 | G,2 G,2 F,2 F,2 | D,4 G,4 | D,4 G,4 | A,2 D,2 D,2 C,2 | F,8 | %6
w: Das dritt Haupt-|stüch, die Lieb ihr|Näxt, zu|Gott sein|hoch und starck auff-|richt,|
w: Dasz du be-|sit- zet bey- de|Lieb, ist|disz ein|ge- wis- sen Zei-|chen,|
 F,4 D,2 D,2 | G,2 G,2 F,2 F,2 | D,4 G,4 | D,4 G,4 | A,2 D,2 D,2 C,2 |[M:2/4] !fermata!F,4 |: %12
w: auch zu dem|Näch- sten auff das|best, weit|und breit|in das Werck auff-|bricht.|
w: dasz man die|Werck der Lieb steths|üb, von|Got- tes|Ge- bott nicht wei-|chen.|
[M:2/2] F,4 F,2 G,2 | F,2 D,2 F,4 | D,4 C,4 | E,4 D,4 | G,4 F,2 B,,2 | C,4 B,,4 | C,4 F,4 | %19
w: Erst musz der|Glaub das Herz|hin- ein,|als dann|Hoff- nung und|Lie- be|rem, am|
w: Die Gnad des|Her- ren al-|les kan,|sie stärckt,|be- gleyt, und|führt uns|an, er-|
 B,,2 F,2 G,2 C,2 | G,4 E,4 | F,8 :| %22
w: Glau- ben ist nicht|gnug al-|lein.|
w: hält auch auff der|rech- ten|Bahn.|

